X: 33
T: Pollonesse #33
M: 3/4
L: 1/16
K: D
Q: 110
d2A2 F2FD G2GE|AFGE FDCD A,4|DEFD EFGE FGAB|ADEF GFGA BABc|
d2A2 F2FD G2GE|AFGE GEFD A,4|DEFD EFGE FGAB|AFGE E4 D4:|
a2e2 dcde dcBA|aece d4c4|aecA EAce dcBA|aece d4c4|A2ag a2e2 dcdB|cA^GB A4A,4:|

